X:11
T:Flionalp-Juiz  Bb  ABBA*CD
T:Toni Vogler (2.4.1940)
T:Dirigenten-Notiz  Edi Gasser
C:Unterwalden (CH)
%%partsbox
M:2/4
R:Naturjodel
L:1/8
K:Bb
[P:A] F>F | f3d | f/d/f/d/ cd | B3D | F2DF | B2d2 | c2cB | 
A2EF | c2f2 | d3c | d2c2 | ("      *"B4  | B)z F>F | f3d | f/d/f/d/ cd | 
B3D | F2DF | B2d2 | c2cA | A2fe | d2cA | (B4 | B)z || 
L:1/8
M:2/4
[P:B] d>c | B2D>E | F2e>d | c2E>F | G2cB | AF AB | cf dc | B>d BG | F2d/c/d/c/ | 
B2D/C/D/E/ | F2e/d/e/d/ | c2 E/D/E/F/ | G2cB | AF AB | cf dc | B>d dc | !fermata!B2 || 
L:1/8
[P:C] F>F | f3d | f/d/f/d/ cd | B3D | F2DF | B2d2 | c2cB | A2fe | d2cA | (B4 | B)z || 
L:1/8
M:2/4
[P:D] B,3C | D3E | FD FB | D2FF | f3d | c2B2 | AE Fd | c4 | C3D | E2G2 | FE FA | 
E2FF | f3e | d2c2 | d2dc | B4 | B,3C | D3E | FD FB | D2FF | f3d | c2B2 | AE Fd | c4 | 
C3D | E2G2 | FE FA | E2FF | f3e | c2d2 | (B4 | B)!breath!zF2 | [M:3/4]  vf2c2vd2 | B6 |] 
W:
W:Reihenfolge: A-BB-A(bis*)-C-D
W:
W:Dem Jodlerklub Giswil zum 50jährigen Jubiläum gewidmet
W:Die Flionalp war während Jahren Wirkungsort von Ruedi Rymann als Älpler. 
W:Heute ist die Alphütte die "Jodlerhütte" des Jodlerklubs Giswil.
W:
W:UJV-Naturjodelsammlung: Code-Nr: 16-06
W:http://www.naturjodler.ch/code 16.htm  (with AUDIO)
%May 11, 2018

